X: 1
T: Tayere Odessa Khusidl    [Bm]
O: Brave Old World
S: Brave Old World: Klezmer Music
S: Transcription by Steve Rauch
Z: 2018 John Chambers <jc:trillian.mit.edu>
M: 2/4
L: 1/16
P: Play AABCCB
K: Bm
"A"|:\
"Bm"F2BB BBBB | B2FB d4 |\
"Bm"B2dd dddd | d2Bd f4 |\
"Bm"d2ff ffff | b2f2 dcde |
"Bm"(3f2g2f2 "Em"e2f2e2 |1 "Bm"defg "F7"fedc :|2 B4 z2d2 \
"B"[|\
"Bm"d2 e4 d2 | "(Am)"d2=cd c2B2 | "Bm"B4- BFDF |
B^ABc dcde | "D"f2g2 g2f2 | "A"f3e agfe |\
"D"d4- dAFA | "Bm"(3d2c2d2 "Am"e2d2e2 ||\
"Dm"=f2ef "(Am)"e2de | "Dm"d2=cd "(Am)"c2Bc |
"Bm"B2B2 e2dc | d4-dcde |\
"Dm"=f2ef "(Am)"e2de | "Dm"d2=cd "(Am)"c2Bc |\
"Bm"B2f2 ^e2f2 | "Bm"HB4 z2"(A7)"A2 \
"C"|:\
"D"d8 | f8 | a8- | a8 |
"D"f2ef e2d2 | "G"g2g2 "D"f4 |\
"D"f2ef e2d2 | "G"g2g2 "D"f4 |\
"A7"e2 a4 gf | e2 a4 gf |\
e^def gfga | "D"f4 z2 d2 :|
